X: 28368
T: Muiñeira De Chantada
R: jig
M: 6/8
K: Dminor
A|:D3 EFG|A3A2A|AGA B2A|
A3 E3|E3 FGA|B3BAG|ABA GFE|
F2E D2A|D3 EFG|A3A2A|AGA d2c|
c3 B3|Bcd e2d|d3 A3|ABA GFE|1 D3D2A:|2 D3d2^c||
K:D
|:A2B c2A|B3 A2G|E2F G2A|
F2D d2c|A2B c2A|B3 A2G|E2F G2A|1 D3d2c:|2 D3DdA||
|:c2B2GE|B2A2FD|A2G2EC|
B2A2dA|c2B2GE|B2A2FD|A2G2EF|1 D3DdA:|2 D3D2||

